X:1
T:Wood, SM
T:Wood, SM
T:Darius Eliot Jones (1815-1881)
T:Public Domain Courtesy of the Cyber Hymnal™
C:Darius Eliot Jones (1815-1881)
Z:Public Domain
Z:Courtesy of the Cyber Hymnal™
%%score ( 1 2 ) 3
L:1/8
Q:1/4=130
M:3/2
K:F
V:1 treble 
V:2 treble 
V:3 bass 
V:1
 [FA]4 | [EG]2 [DF]2 D4 [DF]4 | [EG]8 [FA]4 | [Gc]2 [FA]2 F4 [EG]4 | [FA]8 [EG]4 | %5
 [DF]2 [EG]2 [FA]4 [Fc]4 | F2 [FA]2 [EG]4 [FA]4 | [EG]2 [DF]2 D4 [CE]4 | [CF]8 |] %9
V:2
 x4 | x4 D4 x4 | x12 | x4 F4 x4 | x12 | x12 | F2 x10 | x4 D4 x4 | x8 |] %9
V:3
 [F,C]4 | [C,C]2 [D,A,]2 [B,,B,]4 [D,A,]4 | [C,C]8 [F,C]4 | [E,G,]2 [F,A,]2 [D,A,]4 [C,C]4 | %4
 [F,C]8 [C,C]4 | [D,A,]2 [C,C]2 [F,C]4 [F,A,]4 | [A,C]2 [F,C]2 [C,C]4 [F,C]4 | %7
 [C,B,]2 [D,A,]2 [B,,B,]4 [C,G,]4 | [F,,F,A,]8 |] %9

